X:1
T:Go and Tell
T:Go and Tell
T:Arranged by Clarence R. Kohlmann
T:Charles Austin Miles, 1916
T:Public Domain Courtesy of the Cyber Hymnal™
T:Public Domain Courtesy of the Cyber Hymnal™
C:Arranged by Clarence R. Kohlmann
Z:Public Domain
Z:Courtesy of the Cyber Hymnal™
%%score ( 1 2 ) ( 3 4 )
L:1/8
Q:1/4=105
M:4/4
K:A
V:1 treble 
V:2 treble 
V:3 bass 
V:4 bass 
V:1
 [CE][CA] | [Ec]2 [Ec][^EB] [FA]>[EG] [FA][DF] | [CE]2 [A,C]4 [CA]2 | %3
w: 1.~Go and|tell un- to all the Gos- pel|sto- ry, They|
w: 2.~Tar- ry|not, for the day- light hours are|fleet- ing, They|
w: 3.~There is|One who is stand- ing, wait- ing,|plead- ing, He|
 [DB]2 [DB][C^A] [DB]2 [Fd][Ec] | [DB]6 [DE]2 | [Ec]2 [Ec][^EB] [FA]>[EG] [FA][DF] | %6
w: wait for the light of His|Word; They|wait for the Mes- sen- ger of|
w: shades of the night ga- ther|fast; To-|day in- to yes- ter- day re-|
w: points to His hands and His|side; His|wounds for the world are in- ter-|
 [CE]2 [A,C]4 E2 | [^DF]2 [DB][DA] [=DG]2 [Ec][DB] | [CA]6 ||"^Refrain" z2 | %10
w: glo- ry, Of|whom they as yet have not|heard.||
w: treat- ing, But|warns thee that time can- not|last.||
w: ced- ing, Go|save them for whom He has|died.||
 z [A,DF] z [DFA] z [FAd][FAd] z | z [A,CE] z [CEA] z ([EAc][EAc])"^Soprano and Alto"[CA] | %12
w: ||
w: ~ ~ ~ ~|~ ~ ~ * ~|
w: ||
 [DG]>[DF] [DG][DA] [DB][DB][Ed][Ed] | ([Ec]4 [CA]2)"^All Unison" (z [A,C]) | %14
w: ||
w: The sto- ry of re- demp- tion ev-|er * *|
w: ||
 (z [A,D]) (z [DF]) (z [FA][FA])[A,DF] | z [A,C] (z [CE]) (z [EA][EA])"^Parts"[EA] | %16
w: ||
w: * * * * new?|* * * * O|
w: ||
 [DG]3 [CA] [Ec] [DB]2 [DG] | A6 C2 |] %18
w: ||
w: * who will bring them|to the|
w: ||
V:2
 x2 | x8 | x8 | x8 | x8 | x8 | x6 E2 | x8 | x6 || x2 | x8 | x8 | x8 | x6 E2 | F2 A2 d3 x | %15
 E2 A2 c3 x | x8 | (CD ED C2) x2 |] %18
V:3
 [A,,A,][A,,A,] | [A,,A,]2 [A,,A,][A,,A,] [D,A,]>[D,A,] [D,A,][D,A,] | [A,,A,]2 [A,,E,]4 [A,,A,]2 | %3
w: ~ ~|~ ~ ~ ~ ~ ~ ~|~ ~ ~|
 [E,G,]2 [E,G,][E,^^G,] [E,G,]2 [E,G,][E,G,] | [E,G,]6 [E,G,]2 | %5
w: ~ ~ ~ ~ ~ ~|~ ~|
 [A,,A,]2 [A,,A,][A,,A,] [D,A,]>[D,A,] [D,A,][D,A,] | [A,,A,]2 [A,,E,]4 [C,A,]2 | %7
w: ~ ~ ~ ~ ~ ~ ~|~ ~ ~|
 [B,,A,]2 [B,,A,][B,,B,] [E,B,]2 [E,G,][E,G,] | [E,,A,]6 ||"^Male Voices" E,2 | F,2 A,2 D3 F, | %11
w: ~ ~ ~ ~ ~ ~|~|O|who will tell the|
 E,2 A,2 C3 z | B,,E,G,E, E,,E,G,E, | A,,E,A,E, A,,2 E,2 | F,2 A,2 D3 F, | E,2 A,2 C3 [A,C] | %16
w: sto- ry old,|||||
 [F,B,]3 [E,A,] [E,G,] [E,G,]2 [E,B,] | (A,F, G,F, E,2) x2 |] %18
w: ||
V:4
 x2 | x8 | x8 | x8 | x8 | x8 | x8 | x8 | x6 || x2 | x8 | x8 | x8 | x8 | x8 | x8 | x8 | A,,6 x2 |] %18

